korla/apps/scalable/athena.svg

<!DOCTYPE svg  PUBLIC '-//W3C//DTD SVG 1.1//EN'  'http://www.w3.org/Graphics/SVG/1.1/DTD/svg11.dtd'>
<svg style="clip-rule:evenodd;fill-rule:evenodd;stroke-linejoin:round;stroke-miterlimit:1.41421" version="1.1" viewBox="0 0 48 48" xmlns="http://www.w3.org/2000/svg">
 <path d="m17.113 13.208c-0.121-4e-3 -0.267 2e-3 -0.457 2e-3h-12.647c-0.45 0-2.512 2.36-2.512 2.813v1.893c-1e-3 0.019-5e-3 0.037-5e-3 0.056v23.206c0 0.868 0.699 1.568 1.567 1.568h42.087c0.868 0 1.566-0.7 1.566-1.568v-21.56c0-0.868-2.318-3.214-3.186-3.214h-23.51c-0.015-0.02-0.025-0.031-0.041-0.052-0.58-0.781-1.456-1.79-2.027-2.552-0.343-0.5-0.471-0.583-0.834-0.592h-1e-3z" style="fill-opacity:.666667;fill-rule:nonzero"/>
 <path d="m13.127 5.748h-8.333c-1.613 0-3.297 0.809-3.297 2.74v2.938c-1e-3 0.019-6e-3 0.037-6e-3 0.056v28.668c0 0.868 0.7 1.568 1.568 1.568h42.087c0.868 0 1.566-0.7 1.566-1.568v-27.1c0-1.913-1.351-3.136-3.082-3.136-5.037 0-18.107-0.051-20.91-0.051-1.328 0-2.472-1.598-2.472-1.598-1.071-1.072-2.049-2.543-4.4-2.519-0.573 0-2.166 2e-3 -2.721 2e-3z" style="fill-rule:nonzero;fill:url(#_Linear1)"/>
 <clipPath id="_clip2">
  <path d="m13.127 5.748h-8.333c-1.613 0-3.297 0.809-3.297 2.74v2.938c-1e-3 0.019-6e-3 0.037-6e-3 0.056v28.668c0 0.868 0.7 1.568 1.568 1.568h42.087c0.868 0 1.566-0.7 1.566-1.568v-27.1c0-1.913-1.351-3.136-3.082-3.136-5.037 0-18.107-0.051-20.91-0.051-1.328 0-2.472-1.598-2.472-1.598-1.071-1.072-2.049-2.543-4.4-2.519-0.573 0-2.166 2e-3 -2.721 2e-3z"/>
 </clipPath>
 <g clip-path="url(#_clip2)">
  <path d="m26.076 9.394s-2.066 5.224-2.585 6.561c-0.159 0.911 0.315 1.552 0.663 2.551-0.285 0.561-0.8 1.631-1.11 2.187-0.841 1.507-1.46 2.477-2.342 3.95-0.286 0.479 0.318 0.869 0.506 1.141 0.182 0.263 1.064 0.325 1.599 0.542 0.159 0.738-0.37 1.722-1.109 2.383 0.064 0.616 0.547 1.257 1.109 1.441-0.278 0.129-0.68 0.293-0.605 1.328 0.364 0.251 0.733 0.246 1.053 1.014-0.13 0.86-0.836 2.151-0.448 2.797 0.255 0.424 0.406 0.855 0.944 1.031 1.287 0.42 5.12-0.772 5.747 0 0.301 1.913 1.91 5.944 1.91 5.944l13.781-0.546c0.844 0 1.523-0.681 1.523-1.526v-29.34c0-0.844-0.679-1.525-1.523-1.525l-19.113 0.067z" style="fill:url(#_Linear3)"/>
 </g>
 <defs>
  <linearGradient id="_Linear1" x2="1" gradientTransform="matrix(2.07538e-15,-33.8935,33.8935,2.07538e-15,11.2267,38.4659)" gradientUnits="userSpaceOnUse">
   <stop style="stop-color:rgb(25,124,241)" offset="0"/>
   <stop style="stop-color:rgb(32,188,250)" offset="1"/>
  </linearGradient>
  <linearGradient id="_Linear3" x2="1" gradientTransform="matrix(.191864 -32.57 32.57 .191864 36.0548 42.4318)" gradientUnits="userSpaceOnUse">
   <stop style="stop-color:rgb(78,150,232)" offset="0"/>
   <stop style="stop-color:rgb(126,230,255)" offset="1"/>
  </linearGradient>
 </defs>
</svg>

<?xml version="1.0" encoding="UTF-8" standalone="no"?>
<!DOCTYPE svg PUBLIC "-//W3C//DTD SVG 1.1//EN" "http://www.w3.org/Graphics/SVG/1.1/DTD/svg11.dtd">
<svg width="100%" height="100%" viewBox="0 0 48 48" version="1.1" xmlns="http://www.w3.org/2000/svg" xmlns:xlink="http://www.w3.org/1999/xlink" xml:space="preserve" xmlns:serif="http://www.serif.com/" style="fill-rule:evenodd;clip-rule:evenodd;stroke-linejoin:round;stroke-miterlimit:1.41421;">
    <path id="path12" d="M17.113,13.208C16.992,13.204 16.846,13.21 16.656,13.21L4.009,13.21C3.559,13.21 1.497,15.57 1.497,16.023L1.497,17.916C1.496,17.935 1.492,17.953 1.492,17.972L1.492,41.178C1.492,42.046 2.191,42.746 3.059,42.746L45.146,42.746C46.014,42.746 46.712,42.046 46.712,41.178L46.712,19.618C46.712,18.75 44.394,16.404 43.526,16.404L20.016,16.404C20.001,16.384 19.991,16.373 19.975,16.352C19.395,15.571 18.519,14.562 17.948,13.8C17.605,13.3 17.477,13.217 17.114,13.208L17.113,13.208Z" style="fill-opacity:0.666667;fill-rule:nonzero;"/>
    <path id="path14" d="M13.127,5.748L4.794,5.748C3.181,5.748 1.497,6.557 1.497,8.488L1.497,11.426C1.496,11.445 1.491,11.463 1.491,11.482L1.491,40.15C1.491,41.018 2.191,41.718 3.059,41.718L45.146,41.718C46.014,41.718 46.712,41.018 46.712,40.15L46.712,13.05C46.712,11.137 45.361,9.914 43.63,9.914C38.593,9.914 25.523,9.863 22.72,9.863C21.392,9.863 20.248,8.265 20.248,8.265C19.177,7.193 18.199,5.722 15.848,5.746C15.275,5.746 13.682,5.748 13.127,5.748Z" style="fill:url(#_Linear1);fill-rule:nonzero;"/>
    <clipPath id="_clip2">
        <path id="path16" d="M13.127,5.748L4.794,5.748C3.181,5.748 1.497,6.557 1.497,8.488L1.497,11.426C1.496,11.445 1.491,11.463 1.491,11.482L1.491,40.15C1.491,41.018 2.191,41.718 3.059,41.718L45.146,41.718C46.014,41.718 46.712,41.018 46.712,40.15L46.712,13.05C46.712,11.137 45.361,9.914 43.63,9.914C38.593,9.914 25.523,9.863 22.72,9.863C21.392,9.863 20.248,8.265 20.248,8.265C19.177,7.193 18.199,5.722 15.848,5.746C15.275,5.746 13.682,5.748 13.127,5.748Z"/>
    </clipPath>
    <g clip-path="url(#_clip2)">
        <path d="M26.076,9.394C26.076,9.394 24.01,14.618 23.491,15.955C23.332,16.866 23.806,17.507 24.154,18.506C23.869,19.067 23.354,20.137 23.044,20.693C22.203,22.2 21.584,23.17 20.702,24.643C20.416,25.122 21.02,25.512 21.208,25.784C21.39,26.047 22.272,26.109 22.807,26.326C22.966,27.064 22.437,28.048 21.698,28.709C21.762,29.325 22.245,29.966 22.807,30.15C22.529,30.279 22.127,30.443 22.202,31.478C22.566,31.729 22.935,31.724 23.255,32.492C23.125,33.352 22.419,34.643 22.807,35.289C23.062,35.713 23.213,36.144 23.751,36.32C25.038,36.74 28.871,35.548 29.498,36.32C29.799,38.233 31.408,42.264 31.408,42.264L45.189,41.718C46.033,41.718 46.712,41.037 46.712,40.192L46.712,10.852C46.712,10.008 46.033,9.327 45.189,9.327L26.076,9.394Z" style="fill:url(#_Linear3);"/>
    </g>
    <defs>
        <linearGradient id="_Linear1" x1="0" y1="0" x2="1" y2="0" gradientUnits="userSpaceOnUse" gradientTransform="matrix(2.07538e-15,-33.8935,33.8935,2.07538e-15,11.2267,38.4659)"><stop offset="0" style="stop-color:rgb(25,124,241);stop-opacity:1"/><stop offset="1" style="stop-color:rgb(32,188,250);stop-opacity:1"/></linearGradient>
        <linearGradient id="_Linear3" x1="0" y1="0" x2="1" y2="0" gradientUnits="userSpaceOnUse" gradientTransform="matrix(0.191864,-32.57,32.57,0.191864,36.0548,42.4318)"><stop offset="0" style="stop-color:rgb(78,150,232);stop-opacity:1"/><stop offset="1" style="stop-color:rgb(126,230,255);stop-opacity:1"/></linearGradient>
    </defs>
</svg>
